X:1
T:The Cranberry Bogs
M:6/8
L:1/8
K:D
 A| DFA DFA| A,EE E2 A/2A/2| DFA DFA| A,EE E2 A| DFA dcB| AGA D2 F|\
 EFG GCE| EDC D2||
